picto/cableway-right-framed.svg

<svg class="color-immutable" width="30" height="30" viewBox="0 0 30 30" fill="none" xmlns="http://www.w3.org/2000/svg"><path d="M30 0H0V30H30V0Z" fill="#2D327D"/><path d="M25.5 3C26.325 3 27 3.675 27 4.5V25.5C27 26.325 26.325 27 25.5 27H4.5C3.675 27 3 26.325 3 25.5V4.5C3 3.675 3.675 3 4.5 3H25.5ZM25.5 2.625H4.5C3.46613 2.625 2.625 3.46613 2.625 4.5V25.5C2.625 26.5339 3.46613 27.375 4.5 27.375H25.5C26.5339 27.375 27.375 26.5339 27.375 25.5V4.5C27.375 3.46613 26.5339 2.625 25.5 2.625Z" fill="white"/><path d="M11.7761 8.43803L18.2404 7.30583C18.5721 7.24771 18.8143 6.95933 18.8143 6.62258C18.8143 6.23948 18.5034 5.92868 18.1205 5.92868C18.0804 5.92868 18.0404 5.93228 18.0009 5.93918L11.5369 7.07153C11.2049 7.12966 10.9628 7.41803 10.9628 7.75493C10.9628 8.13781 11.2736 8.44868 11.6565 8.44868C11.6966 8.44861 11.7366 8.44501 11.7761 8.43803Z" fill="white"/><path d="M5.99927 10.516L23.9994 7.3629V6.6777L5.99927 9.8307V10.516Z" fill="white"/><path d="M23.2499 14.2501H19.5375L16.7597 9.00967L15.7112 9.19312L18.3917 14.2501H11.646L14.1343 9.46935L12.832 9.69757L10.4624 14.2501H6.75007C6.33615 14.2501 6 14.5861 6 15.0003V23.2501C6 23.6641 6.33615 24 6.75007 24H23.2499C23.6639 24 24 23.6641 24 23.2499V15.0001C24 14.586 23.6639 14.2501 23.2499 14.2501ZM11.7502 19.1251C11.7502 19.3319 11.5823 19.5001 11.3752 19.5001H7.12493C6.918 19.5001 6.75007 19.3319 6.75007 19.1251V15.3751C6.75007 15.1681 6.918 15.0001 7.12493 15.0001H11.3752C11.5822 15.0001 11.7502 15.1681 11.7502 15.3751V19.1251ZM17.5003 19.1251C17.5003 19.3319 17.3321 19.5001 17.1251 19.5001H12.875C12.668 19.5001 12.4999 19.3319 12.4999 19.1251V15.3751C12.4999 15.1681 12.6681 15.0001 12.875 15.0001H17.1251C17.3321 15.0001 17.5003 15.1681 17.5003 15.3751V19.1251ZM23.2499 19.1251C23.2499 19.3319 23.082 19.5001 22.875 19.5001H18.6247C18.4178 19.5001 18.2498 19.3319 18.2498 19.1251V15.3751C18.2498 15.1681 18.4178 15.0001 18.6247 15.0001H22.875C23.0819 15.0001 23.2499 15.1681 23.2499 15.3751V19.1251Z" fill="white"/></svg>

<svg class="color-immutable" width="30" height="30" viewBox="0 0 30 30" fill="none" xmlns="http://www.w3.org/2000/svg"><g clip-path="url(#a)"><path d="M30 0H0v30h30V0Z" fill="#2D327D"/><path d="M25.5 3c.825 0 1.5.675 1.5 1.5v21c0 .825-.675 1.5-1.5 1.5h-21c-.825 0-1.5-.675-1.5-1.5v-21C3 3.675 3.675 3 4.5 3h21Zm0-.375h-21A1.877 1.877 0 0 0 2.625 4.5v21c0 1.034.841 1.875 1.875 1.875h21a1.877 1.877 0 0 0 1.875-1.875v-21A1.877 1.877 0 0 0 25.5 2.625Z" fill="#fff"/><path d="m11.776 8.438 6.464-1.132A.694.694 0 0 0 18 5.939l-6.463 1.133a.694.694 0 0 0 .24 1.366ZM6 10.516l18-3.153v-.685L6 9.83v.685ZM23.25 14.25h-3.712L16.76 9.01l-1.049.183 2.68 5.057h-6.745l2.488-4.78-1.302.228-2.37 4.552H6.75A.75.75 0 0 0 6 15v8.25c0 .414.336.75.75.75h16.5a.75.75 0 0 0 .75-.75V15a.75.75 0 0 0-.75-.75Zm-11.5 4.875a.375.375 0 0 1-.375.375h-4.25a.375.375 0 0 1-.375-.375v-3.75c0-.207.168-.375.375-.375h4.25c.207 0 .375.168.375.375v3.75Zm5.75 0a.375.375 0 0 1-.375.375h-4.25a.375.375 0 0 1-.375-.375v-3.75c0-.207.168-.375.375-.375h4.25c.207 0 .375.168.375.375v3.75Zm5.75 0a.375.375 0 0 1-.375.375h-4.25a.375.375 0 0 1-.375-.375v-3.75c0-.207.168-.375.375-.375h4.25c.207 0 .375.168.375.375v3.75Z" fill="#fff"/></g><defs><clipPath id="a"><path fill="#fff" d="M0 0h30v30H0z"/></clipPath></defs></svg>
